X: 68
T:Connie O'Connell's Reel
T:Green Garters, The
M:C|
L:1/8
R:Reel
K:D
d2fd Adfd|d2fa gece|d2fd Adfd|eA (3Bcd egfe|!
d2fd Adfd|d2fa gece|d2fd Adfd|eA (3Bcd ef (3gfe|]!
~a3b afdf|a2fd ef (3gfe|~a3b afdf|eA (3Bcd ef (3gfe|!
~a3b afdf|a2fd ef (3gfe|affe fdec|ABcd egfe|]!
